config/expand/iconfont/module-menu/module-yusuanguanli.svg

<?xml version="1.0" encoding="UTF-8"?>
<svg width="21px" height="20px" viewBox="0 0 21 20" version="1.1" xmlns="http://www.w3.org/2000/svg" xmlns:xlink="http://www.w3.org/1999/xlink">
    <!-- Generator: Sketch 53 (72520) - https://sketchapp.com -->
    <title>yusuanguanli</title>
    <desc>Created with Sketch.</desc>
    <defs>
        <linearGradient x1="14.3387761%" y1="50%" x2="100%" y2="50%" id="linearGradient-1">
            <stop stop-color="#B7B7B7" offset="0%"></stop>
            <stop stop-color="#FFFFFF" offset="100%"></stop>
        </linearGradient>
        <linearGradient x1="13.5443747%" y1="8.66351332%" x2="100%" y2="55.6722679%" id="linearGradient-2">
            <stop stop-color="#B7B7B7" offset="0%"></stop>
            <stop stop-color="#FFFFFF" offset="100%"></stop>
        </linearGradient>
    </defs>
    <g id="Page-2" stroke="none" stroke-width="1" fill="none" fill-rule="evenodd">
        <g id="图标" transform="translate(-623.000000, -738.000000)">
            <g id="yusuanguanli" transform="translate(623.000000, 737.091949)">
                <g id="xiangmuyusuan" transform="translate(0.000000, 3.908051)">
                    <path d="M1.81914893,0 L16.1808511,0 C17.1861702,0 18,0.729797979 18,1.63131313 L18,15.3686869 C18,16.2696362 17.1855393,17 16.1808511,17 L1.81914893,17 C0.81446072,17 1.39516058e-16,16.2696362 0,15.3686869 L0,1.63131313 C0,0.729797979 0.813829786,0 1.81914893,0 Z M1.89473683,1.78947368 C1.86961106,1.78947368 1.84551437,1.79878397 1.82774777,1.81535639 C1.80998117,1.83192881 1.79999999,1.85440583 1.8,1.87784276 L1.8,15.0887002 C1.79999999,15.1121372 1.80998117,15.1346142 1.82774777,15.1511866 C1.84551437,15.167759 1.86961106,15.1770693 1.89473683,15.1770693 L16.1052632,15.1770693 C16.1303889,15.1770693 16.1544856,15.167759 16.1722522,15.1511866 C16.1900188,15.1346142 16.2,15.1121372 16.2,15.0887002 L16.2,1.87784276 C16.2,1.85440583 16.1900188,1.83192881 16.1722522,1.81535639 C16.1544856,1.79878397 16.1303889,1.78947368 16.1052632,1.78947368 L1.89473683,1.78947368 Z" id="Shape" fill="#4C4C4C" fill-rule="nonzero"></path>
                    <path d="M7.2,8.34644753 L7.2,8.56315699 L8.0819418,8.56315699 C8.49070828,8.56315699 8.82207898,8.89697267 8.82207898,9.30875518 C8.82207898,9.72053769 8.49070828,10.0543534 8.0819418,10.0543534 L7.2,10.0543534 L7.2,11.907438 C7.2,12.2492348 6.79705627,12.5263158 6.3,12.5263158 C5.80294373,12.5263158 5.4,12.2492348 5.4,11.907438 L5.4,10.0543534 L4.34095955,10.0543534 L4.34013717,10.0543534 C3.9313707,10.0543534 3.6,9.72053769 3.6,9.30875518 C3.6,8.89697267 3.9313707,8.56315699 4.34013717,8.56315699 L5.4,8.56315699 L5.4,8.31649033 L4.37948655,8.29950604 C4.09648005,8.2948402 3.83740375,8.13602681 3.69984919,7.88288933 C3.56229462,7.62975185 3.5671596,7.32074789 3.71261154,7.07227625 C3.85806347,6.82380461 4.12200475,6.67361405 4.40501125,6.67827991 L5.01700108,6.68846518 L3.75489013,4.83803994 C3.59692072,4.6207481 3.5563572,4.32370778 3.6490355,4.06288308 C3.7417138,3.80205838 3.95293856,3.61880647 4.20024796,3.58466862 C4.44755735,3.55053077 4.69173724,3.67091998 4.83746016,3.89883649 L6.12961399,5.79330866 L7.33340826,3.93093486 C7.57269748,3.56081603 8.04797293,3.46768603 8.3949657,3.72292317 C8.74195847,3.97816031 8.82926946,4.48511149 8.58998025,4.85523032 L7.37859854,6.72776899 L8.40974911,6.74493031 C8.84723924,6.7521431 9.19618115,7.12091403 9.1891327,7.56860326 C9.18208425,8.01629248 8.82171454,8.37336921 8.38422442,8.36615645 L7.2,8.34644753 Z M10.7861627,6.11108169 L10.7861627,4.41766694 C10.7861627,3.95445491 11.1436465,3.57894737 11.5846252,3.57894737 C12.0256039,3.57894737 12.3830877,3.95445491 12.3830877,4.41766694 L12.3830877,6.11108169 L13.2398756,6.11108169 C13.648642,6.11108169 13.9800127,6.44489738 13.9800127,6.85667989 C13.9800127,7.26846241 13.648642,7.60227809 13.2398756,7.60227809 L12.3830877,7.60227809 L12.3830877,8.64854122 C12.3830877,9.11175325 12.0256039,9.48726079 11.5846252,9.48726079 C11.1436465,9.48726079 10.7861627,9.11175325 10.7861627,8.64854122 L10.7861627,7.60227809 L9.89610027,7.60227809 C9.63167471,7.6022781 9.38733542,7.46016789 9.25512264,7.229479 C9.12290986,6.99879011 9.12290986,6.71456967 9.25512264,6.48388078 C9.38733542,6.25319189 9.63167471,6.11108168 9.89610027,6.11108169 L10.7861627,6.11108169 Z M10.1893816,12.5263158 C9.76793287,12.5263158 9.42628119,12.161894 9.42628119,11.712357 C9.42628119,11.2628199 9.76793287,10.8983981 10.1893816,10.8983981 L13.6368996,10.8983981 C14.0583483,10.8983981 14.4,11.2628199 14.4,11.712357 C14.4,12.161894 14.0583483,12.5263158 13.6368996,12.5263158 L10.1893816,12.5263158 Z" id="Combined-Shape" fill="url(#linearGradient-1)"></path>
                </g>
                <path d="M5,0.90805114 L20,0.90805114 C20.5522847,0.90805114 21,1.35576639 21,1.90805114 L21,3.53891544 L8.61495801,3.53891544 C7.51038851,3.53891544 6.61495801,4.43434594 6.61495801,5.53891544 L6.61495801,17.9080511 L5,17.9080511 C4.44771525,17.9080511 4,17.4603359 4,16.9080511 L4,1.90805114 C4,1.35576639 4.44771525,0.90805114 5,0.90805114 Z" id="Rectangle" fill="url(#linearGradient-2)" transform="translate(12.500000, 9.408051) scale(-1, 1) translate(-12.500000, -9.408051) "></path>
            </g>
        </g>
    </g>
</svg>

<svg width="21" height="20" xmlns="http://www.w3.org/2000/svg"><defs><linearGradient x1="14.339%" y1="50%" x2="100%" y2="50%" id="a"><stop stop-color="#B7B7B7" offset="0%"/><stop stop-color="#FFF" offset="100%"/></linearGradient><linearGradient x1="13.544%" y1="8.664%" x2="100%" y2="55.672%" id="b"><stop stop-color="#B7B7B7" offset="0%"/><stop stop-color="#FFF" offset="100%"/></linearGradient></defs><g><path d="M1.82 3h14.36C17.187 3 18 3.73 18 4.631V18.37c0 .9-.814 1.631-1.82 1.631H1.82C.813 20 0 19.27 0 18.369V4.63C0 3.73.814 3 1.82 3zm.075 1.79c-.025 0-.05.009-.067.025a.085.085 0 00-.028.063v13.21c0 .024.01.047.028.063a.098.098 0 00.067.026h14.21c.025 0 .05-.01.067-.026a.085.085 0 00.028-.062V4.878a.085.085 0 00-.028-.063.098.098 0 00-.067-.026H1.895z"/><path d="M7.2 8.346v.217h.882c.409 0 .74.334.74.746a.743.743 0 01-.74.745H7.2v1.853c0 .342-.403.62-.9.62s-.9-.278-.9-.62v-1.853H4.341A.743.743 0 013.6 9.31c0-.412.331-.746.74-.746H5.4v-.247L4.38 8.3a.79.79 0 01-.68-.417.827.827 0 01.013-.81.788.788 0 01.692-.395l.612.01-1.262-1.85a.85.85 0 01-.106-.775.702.702 0 01.551-.478.653.653 0 01.637.314L6.13 5.793l1.203-1.862a.734.734 0 011.062-.208.849.849 0 01.195 1.132L7.379 6.728l1.03.017a.802.802 0 01.78.824.8.8 0 01-.805.797L7.2 8.346zm3.586-2.235V4.418c0-.464.358-.84.799-.84.44 0 .798.376.798.84V6.11h.857c.409 0 .74.334.74.746a.743.743 0 01-.74.745h-.857V8.65c0 .463-.357.838-.798.838-.441 0-.799-.375-.799-.838V7.602h-.89a.74.74 0 01-.64-.373.75.75 0 010-.745.74.74 0 01.64-.373h.89zm-.597 6.415c-.421 0-.763-.364-.763-.814 0-.45.342-.814.763-.814h3.448c.421 0 .763.365.763.814 0 .45-.342.814-.763.814h-3.448z" transform="translate(0 3)"/><path d="M5 .908h15a1 1 0 011 1v1.63H8.615a2 2 0 00-2 2v12.37H5a1 1 0 01-1-1v-15a1 1 0 011-1z" transform="matrix(-1 0 0 1 25 -.908)"/></g></svg>
